images/preferences/14.svg

<svg width="76" height="67" viewBox="0 0 76 67" fill="none" xmlns="http://www.w3.org/2000/svg">
<path d="M63.217 43.1708C63.2273 50.2975 57.3609 64.4932 37.6217 66.6132C18.0211 66.6132 0.0631379 52.0796 0.0359272 33.3468C0.00871654 14.614 9.55498 8.6136 18.4275 8.61328C26.9146 8.61328 27.3848 25.3495 34.6574 28.7143C44.1804 33.1203 63.2016 32.5494 63.217 43.1708Z" fill="url(#paint0_linear)"/>
<mask id="path-2-outside-1" maskUnits="userSpaceOnUse" x="28.5" y="1.61328" width="43" height="54" fill="black">
<rect fill="white" x="28.5" y="1.61328" width="43" height="54"/>
<path d="M50 2.61328C38.6963 2.61328 29.5 11.8095 29.5 23.1133C29.5 30.1579 33.0722 36.3836 38.5 40.0753V53.1132C38.5 53.6222 38.758 54.0965 39.1855 54.3728C39.6128 54.6491 40.1513 54.6898 40.6155 54.481L50 50.2582L59.3845 54.4811C59.581 54.5695 59.7907 54.6133 59.9998 54.6133C60.2846 54.6133 60.568 54.5322 60.8145 54.3729C61.2418 54.0965 61.5 53.6222 61.5 53.1133V40.0754C66.9278 36.3837 70.5 30.158 70.5 23.1134C70.5 11.8095 61.3037 2.61328 50 2.61328ZM58.5 50.7935L50.6155 47.2455C50.4197 47.1574 50.2098 47.1133 50 47.1133C49.7902 47.1133 49.5802 47.1573 49.3845 47.2454L41.5 50.7934V41.7711C42.2539 42.1148 43.0277 42.4101 43.8162 42.6593C43.8608 42.6735 43.9054 42.688 43.9503 42.7018C44.051 42.7328 44.1519 42.7627 44.253 42.792C44.3278 42.814 44.4027 42.8357 44.4777 42.8568C44.5593 42.8796 44.6411 42.9016 44.723 42.9233C44.8185 42.9488 44.9141 42.9737 45.0101 42.9979C45.078 43.0148 45.1459 43.0315 45.214 43.0476C45.3244 43.0742 45.4351 43.0998 45.5462 43.1244C45.6038 43.1372 45.6614 43.1499 45.7191 43.1622C45.8408 43.1882 45.9629 43.2128 46.0855 43.2367C46.1353 43.2463 46.1852 43.2562 46.2352 43.2655C46.365 43.2897 46.4953 43.3123 46.6259 43.3341C46.6707 43.3416 46.7155 43.3493 46.7603 43.3564C46.8951 43.3779 47.0305 43.3977 47.1663 43.4165C47.2083 43.4223 47.2503 43.4286 47.2923 43.4342C47.4297 43.4524 47.5678 43.4687 47.7059 43.4842C47.7471 43.4887 47.7882 43.4939 47.8294 43.4984C47.9672 43.513 48.1055 43.5255 48.2442 43.5373C48.2862 43.5408 48.3281 43.5452 48.3702 43.5485C48.5068 43.5592 48.644 43.5679 48.7814 43.576C48.8255 43.5786 48.8694 43.5821 48.9137 43.5844C49.0525 43.5917 49.1919 43.5967 49.3314 43.6012C49.3734 43.6026 49.4152 43.6048 49.4572 43.6059C49.6376 43.6106 49.8186 43.6132 50.0002 43.6132C50.1817 43.6132 50.3627 43.6106 50.543 43.6059C50.5851 43.6048 50.6268 43.6026 50.6689 43.6012C50.8084 43.5967 50.9478 43.5916 51.0866 43.5844C51.1307 43.5821 51.1747 43.5786 51.2188 43.576C51.3563 43.5679 51.4935 43.5593 51.6301 43.5485C51.6722 43.5452 51.7141 43.5408 51.7561 43.5373C51.8947 43.5255 52.0331 43.5129 52.1709 43.4984C52.2121 43.494 52.2532 43.4888 52.2944 43.4842C52.4326 43.4686 52.5705 43.4524 52.7079 43.4342C52.7501 43.4286 52.7919 43.4224 52.834 43.4165C52.9697 43.3977 53.1051 43.3779 53.2399 43.3564C53.2848 43.3492 53.3295 43.3415 53.3744 43.3341C53.505 43.3123 53.6353 43.2897 53.7651 43.2655C53.8151 43.2562 53.8649 43.2464 53.9148 43.2367C54.0373 43.2129 54.1594 43.1881 54.2812 43.1622C54.3389 43.1499 54.3965 43.1372 54.4541 43.1244C54.5652 43.0998 54.6759 43.0742 54.7863 43.0476C54.8543 43.0314 54.9222 43.0147 54.9902 42.9979C55.0861 42.9738 55.1817 42.9489 55.2773 42.9233C55.3591 42.9015 55.441 42.8797 55.5226 42.8568C55.5976 42.8357 55.6726 42.814 55.7473 42.792C55.8484 42.7626 55.9494 42.7328 56.05 42.7018C56.0949 42.6879 56.1394 42.6734 56.1841 42.6593C56.9726 42.4101 57.7464 42.1149 58.5003 41.7712V50.7935H58.5ZM55.7107 39.6556C55.6509 39.6762 55.5911 39.6969 55.5311 39.7169C55.4399 39.7474 55.3483 39.7773 55.2564 39.8063C55.1494 39.8399 55.0422 39.8723 54.9346 39.9038C54.8587 39.9261 54.7828 39.9484 54.7065 39.9697C54.5642 40.0094 54.4214 40.0474 54.2781 40.0834C54.2247 40.097 54.1711 40.1097 54.1175 40.1227C53.9773 40.1567 53.8364 40.189 53.6952 40.2194C53.6597 40.2272 53.6244 40.2353 53.5889 40.2426C53.4067 40.2807 53.2239 40.3161 53.0404 40.3483C53.0217 40.3516 53.0029 40.3544 52.9841 40.3578C52.8188 40.3863 52.6529 40.4122 52.4867 40.4359C52.4493 40.4412 52.4118 40.4465 52.3741 40.4517C52.1969 40.4758 52.0194 40.4979 51.8412 40.5166C51.8345 40.5173 51.8278 40.5182 51.8211 40.5189C51.6346 40.5383 51.4475 40.5543 51.2601 40.5676C51.2194 40.5705 51.1786 40.5727 51.1379 40.5754C50.9922 40.5849 50.8464 40.5923 50.7003 40.5982C50.6506 40.6002 50.6009 40.6022 50.5513 40.6039C50.3677 40.6094 50.184 40.6133 50 40.6133C49.816 40.6133 49.6322 40.6095 49.4487 40.6036C49.3989 40.6021 49.3493 40.6 49.2997 40.598C49.1536 40.5922 49.0078 40.5847 48.8621 40.5752C48.8214 40.5726 48.7806 40.5703 48.7399 40.5674C48.5525 40.554 48.3654 40.538 48.1789 40.5187C48.1722 40.518 48.1655 40.5171 48.1588 40.5164C47.9806 40.4977 47.8031 40.4756 47.6259 40.4515C47.5884 40.4464 47.5509 40.4411 47.5133 40.4357C47.3471 40.4119 47.1812 40.3861 47.0159 40.3576C46.9972 40.3544 46.9784 40.3515 46.9596 40.3481C46.7761 40.3159 46.5932 40.2804 46.4111 40.2424C46.3756 40.235 46.3403 40.2267 46.3047 40.2192C46.1636 40.1889 46.0227 40.1565 45.8824 40.1225C45.8288 40.1095 45.7752 40.0967 45.7219 40.0832C45.5786 40.0473 45.4358 40.0091 45.2935 39.9695C45.2172 39.9482 45.1412 39.9259 45.0654 39.9036C44.9579 39.872 44.8506 39.8397 44.7435 39.8061C44.6516 39.777 44.5601 39.7472 44.4688 39.7167C44.4087 39.6967 44.3488 39.676 44.2891 39.6554C37.4353 37.2828 32.5 30.7639 32.5 23.1133C32.5 13.4638 40.3504 5.61323 50 5.61323C59.6495 5.61323 67.5 13.4637 67.5 23.1133C67.5 30.7639 62.5646 37.2828 55.7107 39.6556Z"/>
</mask>
<path d="M50 2.61328C38.6963 2.61328 29.5 11.8095 29.5 23.1133C29.5 30.1579 33.0722 36.3836 38.5 40.0753V53.1132C38.5 53.6222 38.758 54.0965 39.1855 54.3728C39.6128 54.6491 40.1513 54.6898 40.6155 54.481L50 50.2582L59.3845 54.4811C59.581 54.5695 59.7907 54.6133 59.9998 54.6133C60.2846 54.6133 60.568 54.5322 60.8145 54.3729C61.2418 54.0965 61.5 53.6222 61.5 53.1133V40.0754C66.9278 36.3837 70.5 30.158 70.5 23.1134C70.5 11.8095 61.3037 2.61328 50 2.61328ZM58.5 50.7935L50.6155 47.2455C50.4197 47.1574 50.2098 47.1133 50 47.1133C49.7902 47.1133 49.5802 47.1573 49.3845 47.2454L41.5 50.7934V41.7711C42.2539 42.1148 43.0277 42.4101 43.8162 42.6593C43.8608 42.6735 43.9054 42.688 43.9503 42.7018C44.051 42.7328 44.1519 42.7627 44.253 42.792C44.3278 42.814 44.4027 42.8357 44.4777 42.8568C44.5593 42.8796 44.6411 42.9016 44.723 42.9233C44.8185 42.9488 44.9141 42.9737 45.0101 42.9979C45.078 43.0148 45.1459 43.0315 45.214 43.0476C45.3244 43.0742 45.4351 43.0998 45.5462 43.1244C45.6038 43.1372 45.6614 43.1499 45.7191 43.1622C45.8408 43.1882 45.9629 43.2128 46.0855 43.2367C46.1353 43.2463 46.1852 43.2562 46.2352 43.2655C46.365 43.2897 46.4953 43.3123 46.6259 43.3341C46.6707 43.3416 46.7155 43.3493 46.7603 43.3564C46.8951 43.3779 47.0305 43.3977 47.1663 43.4165C47.2083 43.4223 47.2503 43.4286 47.2923 43.4342C47.4297 43.4524 47.5678 43.4687 47.7059 43.4842C47.7471 43.4887 47.7882 43.4939 47.8294 43.4984C47.9672 43.513 48.1055 43.5255 48.2442 43.5373C48.2862 43.5408 48.3281 43.5452 48.3702 43.5485C48.5068 43.5592 48.644 43.5679 48.7814 43.576C48.8255 43.5786 48.8694 43.5821 48.9137 43.5844C49.0525 43.5917 49.1919 43.5967 49.3314 43.6012C49.3734 43.6026 49.4152 43.6048 49.4572 43.6059C49.6376 43.6106 49.8186 43.6132 50.0002 43.6132C50.1817 43.6132 50.3627 43.6106 50.543 43.6059C50.5851 43.6048 50.6268 43.6026 50.6689 43.6012C50.8084 43.5967 50.9478 43.5916 51.0866 43.5844C51.1307 43.5821 51.1747 43.5786 51.2188 43.576C51.3563 43.5679 51.4935 43.5593 51.6301 43.5485C51.6722 43.5452 51.7141 43.5408 51.7561 43.5373C51.8947 43.5255 52.0331 43.5129 52.1709 43.4984C52.2121 43.494 52.2532 43.4888 52.2944 43.4842C52.4326 43.4686 52.5705 43.4524 52.7079 43.4342C52.7501 43.4286 52.7919 43.4224 52.834 43.4165C52.9697 43.3977 53.1051 43.3779 53.2399 43.3564C53.2848 43.3492 53.3295 43.3415 53.3744 43.3341C53.505 43.3123 53.6353 43.2897 53.7651 43.2655C53.8151 43.2562 53.8649 43.2464 53.9148 43.2367C54.0373 43.2129 54.1594 43.1881 54.2812 43.1622C54.3389 43.1499 54.3965 43.1372 54.4541 43.1244C54.5652 43.0998 54.6759 43.0742 54.7863 43.0476C54.8543 43.0314 54.9222 43.0147 54.9902 42.9979C55.0861 42.9738 55.1817 42.9489 55.2773 42.9233C55.3591 42.9015 55.441 42.8797 55.5226 42.8568C55.5976 42.8357 55.6726 42.814 55.7473 42.792C55.8484 42.7626 55.9494 42.7328 56.05 42.7018C56.0949 42.6879 56.1394 42.6734 56.1841 42.6593C56.9726 42.4101 57.7464 42.1149 58.5003 41.7712V50.7935H58.5ZM55.7107 39.6556C55.6509 39.6762 55.5911 39.6969 55.5311 39.7169C55.4399 39.7474 55.3483 39.7773 55.2564 39.8063C55.1494 39.8399 55.0422 39.8723 54.9346 39.9038C54.8587 39.9261 54.7828 39.9484 54.7065 39.9697C54.5642 40.0094 54.4214 40.0474 54.2781 40.0834C54.2247 40.097 54.1711 40.1097 54.1175 40.1227C53.9773 40.1567 53.8364 40.189 53.6952 40.2194C53.6597 40.2272 53.6244 40.2353 53.5889 40.2426C53.4067 40.2807 53.2239 40.3161 53.0404 40.3483C53.0217 40.3516 53.0029 40.3544 52.9841 40.3578C52.8188 40.3863 52.6529 40.4122 52.4867 40.4359C52.4493 40.4412 52.4118 40.4465 52.3741 40.4517C52.1969 40.4758 52.0194 40.4979 51.8412 40.5166C51.8345 40.5173 51.8278 40.5182 51.8211 40.5189C51.6346 40.5383 51.4475 40.5543 51.2601 40.5676C51.2194 40.5705 51.1786 40.5727 51.1379 40.5754C50.9922 40.5849 50.8464 40.5923 50.7003 40.5982C50.6506 40.6002 50.6009 40.6022 50.5513 40.6039C50.3677 40.6094 50.184 40.6133 50 40.6133C49.816 40.6133 49.6322 40.6095 49.4487 40.6036C49.3989 40.6021 49.3493 40.6 49.2997 40.598C49.1536 40.5922 49.0078 40.5847 48.8621 40.5752C48.8214 40.5726 48.7806 40.5703 48.7399 40.5674C48.5525 40.554 48.3654 40.538 48.1789 40.5187C48.1722 40.518 48.1655 40.5171 48.1588 40.5164C47.9806 40.4977 47.8031 40.4756 47.6259 40.4515C47.5884 40.4464 47.5509 40.4411 47.5133 40.4357C47.3471 40.4119 47.1812 40.3861 47.0159 40.3576C46.9972 40.3544 46.9784 40.3515 46.9596 40.3481C46.7761 40.3159 46.5932 40.2804 46.4111 40.2424C46.3756 40.235 46.3403 40.2267 46.3047 40.2192C46.1636 40.1889 46.0227 40.1565 45.8824 40.1225C45.8288 40.1095 45.7752 40.0967 45.7219 40.0832C45.5786 40.0473 45.4358 40.0091 45.2935 39.9695C45.2172 39.9482 45.1412 39.9259 45.0654 39.9036C44.9579 39.872 44.8506 39.8397 44.7435 39.8061C44.6516 39.777 44.5601 39.7472 44.4688 39.7167C44.4087 39.6967 44.3488 39.676 44.2891 39.6554C37.4353 37.2828 32.5 30.7639 32.5 23.1133C32.5 13.4638 40.3504 5.61323 50 5.61323C59.6495 5.61323 67.5 13.4637 67.5 23.1133C67.5 30.7639 62.5646 37.2828 55.7107 39.6556Z" fill="white"/>
<path d="M50 2.61328C38.6963 2.61328 29.5 11.8095 29.5 23.1133C29.5 30.1579 33.0722 36.3836 38.5 40.0753V53.1132C38.5 53.6222 38.758 54.0965 39.1855 54.3728C39.6128 54.6491 40.1513 54.6898 40.6155 54.481L50 50.2582L59.3845 54.4811C59.581 54.5695 59.7907 54.6133 59.9998 54.6133C60.2846 54.6133 60.568 54.5322 60.8145 54.3729C61.2418 54.0965 61.5 53.6222 61.5 53.1133V40.0754C66.9278 36.3837 70.5 30.158 70.5 23.1134C70.5 11.8095 61.3037 2.61328 50 2.61328ZM58.5 50.7935L50.6155 47.2455C50.4197 47.1574 50.2098 47.1133 50 47.1133C49.7902 47.1133 49.5802 47.1573 49.3845 47.2454L41.5 50.7934V41.7711C42.2539 42.1148 43.0277 42.4101 43.8162 42.6593C43.8608 42.6735 43.9054 42.688 43.9503 42.7018C44.051 42.7328 44.1519 42.7627 44.253 42.792C44.3278 42.814 44.4027 42.8357 44.4777 42.8568C44.5593 42.8796 44.6411 42.9016 44.723 42.9233C44.8185 42.9488 44.9141 42.9737 45.0101 42.9979C45.078 43.0148 45.1459 43.0315 45.214 43.0476C45.3244 43.0742 45.4351 43.0998 45.5462 43.1244C45.6038 43.1372 45.6614 43.1499 45.7191 43.1622C45.8408 43.1882 45.9629 43.2128 46.0855 43.2367C46.1353 43.2463 46.1852 43.2562 46.2352 43.2655C46.365 43.2897 46.4953 43.3123 46.6259 43.3341C46.6707 43.3416 46.7155 43.3493 46.7603 43.3564C46.8951 43.3779 47.0305 43.3977 47.1663 43.4165C47.2083 43.4223 47.2503 43.4286 47.2923 43.4342C47.4297 43.4524 47.5678 43.4687 47.7059 43.4842C47.7471 43.4887 47.7882 43.4939 47.8294 43.4984C47.9672 43.513 48.1055 43.5255 48.2442 43.5373C48.2862 43.5408 48.3281 43.5452 48.3702 43.5485C48.5068 43.5592 48.644 43.5679 48.7814 43.576C48.8255 43.5786 48.8694 43.5821 48.9137 43.5844C49.0525 43.5917 49.1919 43.5967 49.3314 43.6012C49.3734 43.6026 49.4152 43.6048 49.4572 43.6059C49.6376 43.6106 49.8186 43.6132 50.0002 43.6132C50.1817 43.6132 50.3627 43.6106 50.543 43.6059C50.5851 43.6048 50.6268 43.6026 50.6689 43.6012C50.8084 43.5967 50.9478 43.5916 51.0866 43.5844C51.1307 43.5821 51.1747 43.5786 51.2188 43.576C51.3563 43.5679 51.4935 43.5593 51.6301 43.5485C51.6722 43.5452 51.7141 43.5408 51.7561 43.5373C51.8947 43.5255 52.0331 43.5129 52.1709 43.4984C52.2121 43.494 52.2532 43.4888 52.2944 43.4842C52.4326 43.4686 52.5705 43.4524 52.7079 43.4342C52.7501 43.4286 52.7919 43.4224 52.834 43.4165C52.9697 43.3977 53.1051 43.3779 53.2399 43.3564C53.2848 43.3492 53.3295 43.3415 53.3744 43.3341C53.505 43.3123 53.6353 43.2897 53.7651 43.2655C53.8151 43.2562 53.8649 43.2464 53.9148 43.2367C54.0373 43.2129 54.1594 43.1881 54.2812 43.1622C54.3389 43.1499 54.3965 43.1372 54.4541 43.1244C54.5652 43.0998 54.6759 43.0742 54.7863 43.0476C54.8543 43.0314 54.9222 43.0147 54.9902 42.9979C55.0861 42.9738 55.1817 42.9489 55.2773 42.9233C55.3591 42.9015 55.441 42.8797 55.5226 42.8568C55.5976 42.8357 55.6726 42.814 55.7473 42.792C55.8484 42.7626 55.9494 42.7328 56.05 42.7018C56.0949 42.6879 56.1394 42.6734 56.1841 42.6593C56.9726 42.4101 57.7464 42.1149 58.5003 41.7712V50.7935H58.5ZM55.7107 39.6556C55.6509 39.6762 55.5911 39.6969 55.5311 39.7169C55.4399 39.7474 55.3483 39.7773 55.2564 39.8063C55.1494 39.8399 55.0422 39.8723 54.9346 39.9038C54.8587 39.9261 54.7828 39.9484 54.7065 39.9697C54.5642 40.0094 54.4214 40.0474 54.2781 40.0834C54.2247 40.097 54.1711 40.1097 54.1175 40.1227C53.9773 40.1567 53.8364 40.189 53.6952 40.2194C53.6597 40.2272 53.6244 40.2353 53.5889 40.2426C53.4067 40.2807 53.2239 40.3161 53.0404 40.3483C53.0217 40.3516 53.0029 40.3544 52.9841 40.3578C52.8188 40.3863 52.6529 40.4122 52.4867 40.4359C52.4493 40.4412 52.4118 40.4465 52.3741 40.4517C52.1969 40.4758 52.0194 40.4979 51.8412 40.5166C51.8345 40.5173 51.8278 40.5182 51.8211 40.5189C51.6346 40.5383 51.4475 40.5543 51.2601 40.5676C51.2194 40.5705 51.1786 40.5727 51.1379 40.5754C50.9922 40.5849 50.8464 40.5923 50.7003 40.5982C50.6506 40.6002 50.6009 40.6022 50.5513 40.6039C50.3677 40.6094 50.184 40.6133 50 40.6133C49.816 40.6133 49.6322 40.6095 49.4487 40.6036C49.3989 40.6021 49.3493 40.6 49.2997 40.598C49.1536 40.5922 49.0078 40.5847 48.8621 40.5752C48.8214 40.5726 48.7806 40.5703 48.7399 40.5674C48.5525 40.554 48.3654 40.538 48.1789 40.5187C48.1722 40.518 48.1655 40.5171 48.1588 40.5164C47.9806 40.4977 47.8031 40.4756 47.6259 40.4515C47.5884 40.4464 47.5509 40.4411 47.5133 40.4357C47.3471 40.4119 47.1812 40.3861 47.0159 40.3576C46.9972 40.3544 46.9784 40.3515 46.9596 40.3481C46.7761 40.3159 46.5932 40.2804 46.4111 40.2424C46.3756 40.235 46.3403 40.2267 46.3047 40.2192C46.1636 40.1889 46.0227 40.1565 45.8824 40.1225C45.8288 40.1095 45.7752 40.0967 45.7219 40.0832C45.5786 40.0473 45.4358 40.0091 45.2935 39.9695C45.2172 39.9482 45.1412 39.9259 45.0654 39.9036C44.9579 39.872 44.8506 39.8397 44.7435 39.8061C44.6516 39.777 44.5601 39.7472 44.4688 39.7167C44.4087 39.6967 44.3488 39.676 44.2891 39.6554C37.4353 37.2828 32.5 30.7639 32.5 23.1133C32.5 13.4638 40.3504 5.61323 50 5.61323C59.6495 5.61323 67.5 13.4637 67.5 23.1133C67.5 30.7639 62.5646 37.2828 55.7107 39.6556Z" stroke="white" stroke-width="0.8" mask="url(#path-2-outside-1)"/>
<path d="M51.4436 10.2128L51.4435 10.2128C51.1329 9.71556 50.588 9.41328 50.0016 9.41328C49.4153 9.41328 48.8704 9.71556 48.5598 10.2128L48.5597 10.2128L45.4389 15.2102L39.5506 15.4142C39.5505 15.4142 39.5505 15.4142 39.5505 15.4142C38.9645 15.4345 38.4303 15.7555 38.1372 16.2632C37.844 16.7709 37.8331 17.394 38.1086 17.9116C38.1086 17.9117 38.1086 17.9117 38.1086 17.9117L40.8761 23.1132L38.1086 28.3147C38.1086 28.3147 38.1086 28.3147 38.1086 28.3147C37.8331 28.8324 37.844 29.4554 38.1372 29.9631C38.4303 30.4708 38.9645 30.7919 39.5506 30.8121L45.4389 31.0161L48.5597 36.0135L48.7294 35.9076L48.5597 36.0136C48.8703 36.5108 49.4153 36.8131 50.0016 36.8131C50.588 36.8131 51.1329 36.5108 51.4435 36.0136L51.4436 36.0135L54.5644 31.0161L60.4527 30.8121C61.0388 30.7919 61.573 30.4708 61.8661 29.9631C62.1593 29.4554 62.1702 28.8323 61.8946 28.3147L59.1273 23.1132L61.8947 17.9117C61.8947 17.9117 61.8948 17.9117 61.8948 17.9116C62.1703 17.394 62.1594 16.7709 61.8662 16.2632C61.5731 15.7555 61.0389 15.4345 60.4528 15.4142L54.5645 15.2102L51.4436 10.2128ZM46.4606 27.6496L46.4606 27.6496L42.3889 27.5084L44.3025 23.9117C44.3025 23.9117 44.3025 23.9117 44.3025 23.9117C44.5682 23.4124 44.5682 22.8139 44.3025 22.3147C44.3025 22.3147 44.3025 22.3147 44.3025 22.3147L42.3889 18.7179L46.4606 18.5768C47.0256 18.5572 47.5442 18.2579 47.8436 17.7782C47.8436 17.7782 47.8436 17.7782 47.8436 17.7782L50.0016 14.3226L52.1597 17.7783C52.4592 18.2579 52.9776 18.5572 53.5427 18.5769L53.5427 18.5769L57.6144 18.718L55.7008 22.3148L55.7008 22.3148C55.4352 22.814 55.4352 23.4126 55.7009 23.9118C55.7009 23.9118 55.7009 23.9118 55.7009 23.9118L57.6145 27.5085L53.5428 27.6495C52.9778 27.669 52.4592 27.9684 52.1598 28.448C52.1598 28.4481 52.1598 28.4481 52.1598 28.4481L50.0016 31.9038L47.8436 28.4481C47.5441 27.9685 47.0256 27.6692 46.4606 27.6496Z" fill="white" stroke="white" stroke-width="0.4"/>
<defs>
<linearGradient id="paint0_linear" x1="0" y1="8.61328" x2="69.622" y2="67.9394" gradientUnits="userSpaceOnUse">
<stop stop-color="#F09642" stop-opacity="0.78"/>
<stop offset="1" stop-color="#F0D542" stop-opacity="0.79"/>
</linearGradient>
</defs>
</svg>

<svg width="76" height="67" fill="none" xmlns="http://www.w3.org/2000/svg"><path d="M63.217 43.17c.01 7.127-5.856 21.323-25.595 23.443-19.6 0-37.559-14.533-37.586-33.266C.009 14.614 9.555 8.614 18.427 8.613c8.488 0 8.958 16.736 16.23 20.101 9.523 4.406 28.545 3.835 28.56 14.457Z" fill="url(#a)"/><mask id="b" maskUnits="userSpaceOnUse" x="28.5" y="1.613" width="43" height="54" fill="#000"><path fill="#fff" d="M28.5 1.613h43v54h-43z"/><path d="M50 2.613c-11.304 0-20.5 9.197-20.5 20.5 0 7.045 3.572 13.27 9 16.962v13.038a1.5 1.5 0 0 0 2.115 1.368L50 50.258l9.385 4.223a1.499 1.499 0 0 0 2.115-1.368V40.075c5.428-3.691 9-9.917 9-16.962 0-11.303-9.196-20.5-20.5-20.5Zm8.5 48.18-7.885-3.547a1.5 1.5 0 0 0-1.23 0L41.5 50.792v-9.022c.754.344 1.528.64 2.316.888l.134.043a19.074 19.074 0 0 0 .773.221 21.193 21.193 0 0 0 .996.24l.367.074.15.029c.129.024.26.046.39.068l.134.022c.135.022.27.042.406.06l.126.018c.138.018.276.035.414.05l.123.014c.138.015.276.028.415.04l.126.01c.137.011.274.02.411.028l.133.008c.139.008.278.013.417.017l.126.005a20.846 20.846 0 0 0 1.086 0l.126-.005c.14-.004.279-.01.418-.017l.132-.008c.137-.008.274-.017.411-.028l.126-.01c.139-.012.277-.025.415-.04l.123-.014a21.6 21.6 0 0 0 .414-.05l.126-.017.406-.06.134-.023c.131-.022.261-.044.391-.069l.15-.028a21.207 21.207 0 0 0 1.362-.314l.246-.066a19.232 19.232 0 0 0 .527-.155l.134-.043c.789-.249 1.562-.544 2.316-.888v9.023Zm-2.79-11.137-.179.06a16.931 16.931 0 0 1-.596.188l-.229.066c-.142.04-.285.077-.428.113l-.16.04c-.14.034-.282.066-.423.096l-.106.024c-.182.038-.365.073-.549.105l-.056.01a17.312 17.312 0 0 1-1.143.159l-.02.002c-.186.02-.373.035-.56.049l-.123.007c-.146.01-.292.017-.438.023l-.149.006a17.155 17.155 0 0 1-1.103 0l-.148-.006a17.226 17.226 0 0 1-.438-.023l-.122-.008c-.188-.013-.375-.029-.561-.048l-.02-.003a17.527 17.527 0 0 1-1.143-.158l-.056-.01a17.452 17.452 0 0 1-.549-.106l-.106-.023c-.141-.03-.282-.063-.423-.096l-.16-.04a17.086 17.086 0 0 1-1.253-.366l-.18-.062C37.435 37.283 32.5 30.764 32.5 23.113c0-9.65 7.85-17.5 17.5-17.5s17.5 7.85 17.5 17.5c0 7.65-4.935 14.17-11.79 16.543Z"/></mask><path d="M50 2.613c-11.304 0-20.5 9.197-20.5 20.5 0 7.045 3.572 13.27 9 16.962v13.038a1.5 1.5 0 0 0 2.115 1.368L50 50.258l9.385 4.223a1.499 1.499 0 0 0 2.115-1.368V40.075c5.428-3.691 9-9.917 9-16.962 0-11.303-9.196-20.5-20.5-20.5Zm8.5 48.18-7.885-3.547a1.5 1.5 0 0 0-1.23 0L41.5 50.792v-9.022c.754.344 1.528.64 2.316.888l.134.043a19.074 19.074 0 0 0 .773.221 21.193 21.193 0 0 0 .996.24l.367.074.15.029c.129.024.26.046.39.068l.134.022c.135.022.27.042.406.06l.126.018c.138.018.276.035.414.05l.123.014c.138.015.276.028.415.04l.126.01c.137.011.274.02.411.028l.133.008c.139.008.278.013.417.017l.126.005a20.846 20.846 0 0 0 1.086 0l.126-.005c.14-.004.279-.01.418-.017l.132-.008c.137-.008.274-.017.411-.028l.126-.01c.139-.012.277-.025.415-.04l.123-.014a21.6 21.6 0 0 0 .414-.05l.126-.017.406-.06.134-.023c.131-.022.261-.044.391-.069l.15-.028a21.207 21.207 0 0 0 1.362-.314l.246-.066a19.232 19.232 0 0 0 .527-.155l.134-.043c.789-.249 1.562-.544 2.316-.888v9.023Zm-2.79-11.137-.179.06a16.931 16.931 0 0 1-.596.188l-.229.066c-.142.04-.285.077-.428.113l-.16.04c-.14.034-.282.066-.423.096l-.106.024c-.182.038-.365.073-.549.105l-.056.01a17.312 17.312 0 0 1-1.143.159l-.02.002c-.186.02-.373.035-.56.049l-.123.007c-.146.01-.292.017-.438.023l-.149.006a17.155 17.155 0 0 1-1.103 0l-.148-.006a17.226 17.226 0 0 1-.438-.023l-.122-.008c-.188-.013-.375-.029-.561-.048l-.02-.003a17.527 17.527 0 0 1-1.143-.158l-.056-.01a17.452 17.452 0 0 1-.549-.106l-.106-.023c-.141-.03-.282-.063-.423-.096l-.16-.04a17.086 17.086 0 0 1-1.253-.366l-.18-.062C37.435 37.283 32.5 30.764 32.5 23.113c0-9.65 7.85-17.5 17.5-17.5s17.5 7.85 17.5 17.5c0 7.65-4.935 14.17-11.79 16.543Z" fill="#fff"/><path d="M50 2.613c-11.304 0-20.5 9.197-20.5 20.5 0 7.045 3.572 13.27 9 16.962v13.038a1.5 1.5 0 0 0 2.115 1.368L50 50.258l9.385 4.223a1.499 1.499 0 0 0 2.115-1.368V40.075c5.428-3.691 9-9.917 9-16.962 0-11.303-9.196-20.5-20.5-20.5Zm8.5 48.18-7.885-3.547a1.5 1.5 0 0 0-1.23 0L41.5 50.792v-9.022c.754.344 1.528.64 2.316.888l.134.043a19.074 19.074 0 0 0 .773.221 21.193 21.193 0 0 0 .996.24l.367.074.15.029c.129.024.26.046.39.068l.134.022c.135.022.27.042.406.06l.126.018c.138.018.276.035.414.05l.123.014c.138.015.276.028.415.04l.126.01c.137.011.274.02.411.028l.133.008c.139.008.278.013.417.017l.126.005a20.846 20.846 0 0 0 1.086 0l.126-.005c.14-.004.279-.01.418-.017l.132-.008c.137-.008.274-.017.411-.028l.126-.01c.139-.012.277-.025.415-.04l.123-.014a21.6 21.6 0 0 0 .414-.05l.126-.017.406-.06.134-.023c.131-.022.261-.044.391-.069l.15-.028a21.207 21.207 0 0 0 1.362-.314l.246-.066a19.232 19.232 0 0 0 .527-.155l.134-.043c.789-.249 1.562-.544 2.316-.888v9.023Zm-2.79-11.137-.179.06a16.931 16.931 0 0 1-.596.188l-.229.066c-.142.04-.285.077-.428.113l-.16.04c-.14.034-.282.066-.423.096l-.106.024c-.182.038-.365.073-.549.105l-.056.01a17.312 17.312 0 0 1-1.143.159l-.02.002c-.186.02-.373.035-.56.049l-.123.007c-.146.01-.292.017-.438.023l-.149.006a17.155 17.155 0 0 1-1.103 0l-.148-.006a17.226 17.226 0 0 1-.438-.023l-.122-.008c-.188-.013-.375-.029-.561-.048l-.02-.003a17.527 17.527 0 0 1-1.143-.158l-.056-.01a17.452 17.452 0 0 1-.549-.106l-.106-.023c-.141-.03-.282-.063-.423-.096l-.16-.04a17.086 17.086 0 0 1-1.253-.366l-.18-.062C37.435 37.283 32.5 30.764 32.5 23.113c0-9.65 7.85-17.5 17.5-17.5s17.5 7.85 17.5 17.5c0 7.65-4.935 14.17-11.79 16.543Z" stroke="#fff" stroke-width=".8" mask="url(#b)"/><path d="M51.444 10.213a1.7 1.7 0 0 0-2.884 0l-3.121 4.997-5.888.204a1.7 1.7 0 0 0-1.442 2.498l2.767 5.201-2.767 5.202a1.7 1.7 0 0 0 1.442 2.497l5.888.204 3.12 4.998.17-.106-.17.106a1.7 1.7 0 0 0 2.885 0l3.12-4.998 5.889-.204a1.7 1.7 0 0 0 1.442-2.497l-2.768-5.202 2.768-5.201a1.7 1.7 0 0 0-1.442-2.498l-5.889-.204-3.12-4.997ZM46.46 27.65l-4.072-.142 1.913-3.596a1.7 1.7 0 0 0 0-1.597l-1.913-3.597 4.072-.141a1.7 1.7 0 0 0 1.383-.799l2.158-3.455 2.158 3.455c.3.48.818.78 1.383.799l4.071.141-1.913 3.597a1.7 1.7 0 0 0 0 1.597l1.913 3.597-4.071.14a1.7 1.7 0 0 0-1.383.799l-2.158 3.456-2.158-3.456a1.7 1.7 0 0 0-1.383-.798Z" fill="#fff" stroke="#fff" stroke-width=".4"/><defs><linearGradient id="a" x1="0" y1="8.613" x2="69.622" y2="67.939" gradientUnits="userSpaceOnUse"><stop stop-color="#F09642" stop-opacity=".78"/><stop offset="1" stop-color="#F0D542" stop-opacity=".79"/></linearGradient></defs></svg>
